!!!OTL: Marien - Psalter
!!!ARE: Europa, Mitteleuropa, Deutschland
!!!SCT: A0594
!!!YEM: Copyright 1995, estate of Helmut Schaffrath.
**kern
*ICvox
*Ivox
*M4/4
*k[f#]
*e:
{4e
=1
4a
4gn
4a
4b
=2
4ccn
4b
2a}
=3
{4ccn
4ccn
2ccn
=4
4b
4ccn
4ddn
4ccn
=5
2b
4r}
{4a
=6
4gn
4a
4b
4b
=7
4e
4e
4r}
{4e
=8
4a
4gn
4a
4b
=9
4ccn
4b
2a
=10
4r}
{4ccn
4ccn
4ccn
=11
4b
4ccn
4ddn
4ccn
=12
2b
4r}
{4a
=13
4gn
4a
4b
4b
=14
4e
4e
2r
=15
4r}
{4cn
4dn
4e
=16
4fn
4fn
4gn
4a
=17
2a
4r}
{4gn
=18
4gn
4fn
4e
4e
=19
4cn
4cn
2r
=20
4r}
{4gn
4gn
4gn
=21
4gn
4e
4a
4b
=22
2a
4r}
{4a
=23
4b
4a
4gn
4gn
=24
4e
4e
2r
=25
4r}
{4e
4e
4fn
=26
4gn
4a
4gn
4e
=27
2cn}
{2cn
=28
4gn
4a
4b
4a
=29
4ccn
4a
2gn
=30
4r}
{4e
4a
4b
=31
4gn
4e
4cn
4dn
=32
1e}
==
!!!AGN: Romanze, Ballade, Lied, religioeses Lied
!! Werlins Hs. 1646 S. 3682
!!!ONB: ESAC (Essen Associative Code) Database: ALTDEU
!!!AMT: simple quadruple
!!!AIN: vox
!!!EED: Helmut Schaffrath
!!!EEV: 1.0
*-
